X: 22206
T: La Chapka
R: mazurka
M: 3/4
K: Gmajor
"G"B2 BA AB|"Em"B3G GA|"C"A3B cB|"D"BA AG GA|
"G"B2 BA AB|"Em"B3G GA|"C"A2 AB cB|1 "D"A6:|2 "D"A3d BA||
|:"G"G3A BD|"C"E3d BA|"G"G3B "Am"ce|"D"dF Ad BA|
"Em"G3A BD|"C"E3d BA|"Am"GF GB ce|1 "D"d3d BA:|2 "D"d6||

